svg/300/sharp/swipe_right.svg

<svg xmlns="http://www.w3.org/2000/svg" width="48" height="48" viewBox="0 -960 960 960"><path d="M428.231-100.001 194.77-333.078l32.461-44.691 142.77 37v-361.923h45.383v422.691L274.46-317.617l172.617 172.232h287.538v-301.922h45.384v347.306H428.231Zm63.385-277.307v-189.999h45.383v189.999h-45.383Zm121.384 0v-149.999h45.384v149.999H613ZM100.001-686.922q50.154-96.538 148.654-149.999t222.884-53.461q96.461 0 184.653 32.961t170.73 96.961v-99.539h33.077v173.077H686.922v-33.077h136.077Q742.076-788.614 654.08-822.96q-87.995-34.346-182.541-34.346-108.461 0-195.654 43.884-87.192 43.885-138.576 126.5h-37.308Zm477.23 420.383Z"/></svg>

<svg xmlns="http://www.w3.org/2000/svg" width="48" height="48" viewBox="0 -960 960 960"><path d="M428.23-100 194.77-333.08l32.46-44.69 142.77 37v-361.92h45.38V-280l-140.92-37.62 172.62 172.23h287.53v-301.92H780V-100H428.23Zm63.39-277.31v-190H537v190h-45.38Zm121.38 0v-150h45.38v150H613ZM100-686.92q50.16-96.54 148.66-150 98.49-53.46 222.88-53.46 96.46 0 184.65 32.96 88.19 32.96 170.73 96.96V-860H860v173.08H686.92V-720H823q-80.92-68.61-168.92-102.96-88-34.35-182.54-34.35-108.46 0-195.65 43.89-87.2 43.88-138.58 126.5H100Zm477.23 420.38Z"/></svg>
